; generated by PrusaSlicer 2.4.2+win64 on 2022-06-05 at 02:19:48 UTC


;
;
; 

; external perimeters extrusion width = 0.45mm
; perimeters extrusion width = 0.45mm
; infill extrusion width = 0.45mm
; solid infill extrusion width = 0.45mm
; top infill extrusion width = 0.40mm
; first layer extrusion width = 0.42mm

M73 P0 R5
M73 Q0 S5
M201 X1000 Y1000 Z200 E5000 ; sets maximum accelerations, mm/sec^2
M203 X200 Y200 Z12 E120 ; sets maximum feedrates, mm / sec
M204 P1250 R1250 T1250 ; sets acceleration (P, T) and retract acceleration (R), mm/sec^2
M205 X8.00 Y8.00 Z0.40 E4.50 ; sets the jerk limits, mm/sec
M205 S0 T0 ; sets the minimum extruding and travel feed rate, mm/sec
M107 ; disable fan
;TYPE:Custom
M862.3 P "MK3S" ; printer model check
M862.1 P0.4 ; nozzle diameter check
M115 U3.11.0 ; tell printer latest fw version
G90 ; use absolute coordinates
M83 ; extruder relative mode
M104 S210 ; set extruder temp
M140 S60 ; set bed temp
M190 S60 ; wait for bed temp
M109 S210 ; wait for extruder temp
G28 W ; home all without mesh bed level
G80 ; mesh bed leveling
G1 Z0.2 F720
G1 Y-3 F1000 ; go outside print area
G92 E0
G1 X60 E9 F1000 ; intro line
G1 X100 E12.5 F1000 ; intro line
G92 E0
M221 S95

; Don't change E values below. Excessive value can damage the printer.

M907 E538 ; set extruder motor current
G21 ; set units to millimeters
G90 ; use absolute coordinates
M83 ; use relative distances for extrusion
M900 K30 ; Filament gcode
M107 ; disable fan
;LAYER_CHANGE
;Z:0.2
;HEIGHT:0.2
;BEFORE_LAYER_CHANGE
G92 E0.0
;0.2


M73 P1 R5
M73 Q1 S5
G1 E-.8 F2100 ; retract
G1 Z.4 F720 ; lift Z
;AFTER_LAYER_CHANGE
;0.2
G1 X115.715 Y102.786 F10800 ; move to first skirt point
G1 Z.2 F720 ; restore layer Z
M73 Q2 S5
G1 E.8 F2100 ;  ; unretract
M204 S800 ; adjust acceleration
;TYPE:Skirt/Brim
;WIDTH:0.42
G1 F1200
M73 P2 R5
G1 X122.786 Y95.715 E.31354 ; skirt
G1 X124.139 Y94.918 E.04923 ; skirt
G1 X125.708 Y94.879 E.04923 ; skirt
G1 X127.214 Y95.715 E.054 ; skirt
G1 X134.285 Y102.786 E.31354 ; skirt
G1 X135.082 Y104.139 E.04923 ; skirt
G1 X135.121 Y105.708 E.04923 ; skirt
G1 X134.285 Y107.214 E.054 ; skirt
G1 X127.214 Y114.285 E.31354 ; skirt
G1 X125.861 Y115.082 E.04923 ; skirt
G1 X124.292 Y115.121 E.04923 ; skirt
G1 X122.786 Y114.285 E.054 ; skirt
G1 X115.715 Y107.214 E.31354 ; skirt
G1 X114.918 Y105.861 E.04923 ; skirt
G1 X114.879 Y104.292 E.04923 ; skirt
G1 X115.686 Y102.838 E.05212 ; skirt
M204 S1000 ; adjust acceleration
G1 X115.981 Y103.053 F10800 ; move to first skirt point
M204 S800 ; adjust acceleration
G1 F1200
G1 X123.053 Y95.981 E.31354 ; skirt
G1 X124.332 Y95.257 E.04612 ; skirt
M73 Q3 S5
G1 X125.803 Y95.294 E.04612 ; skirt
M73 P3 R5
G1 X126.947 Y95.981 E.04186 ; skirt
G1 X134.019 Y103.053 E.31354 ; skirt
G1 X134.743 Y104.332 E.04612 ; skirt
G1 X134.706 Y105.803 E.04612 ; skirt
G1 X134.019 Y106.947 E.04186 ; skirt
G1 X126.947 Y114.019 E.31354 ; skirt
G1 X125.668 Y114.743 E.04612 ; skirt
G1 X124.197 Y114.706 E.04612 ; skirt
G1 X123.053 Y114.019 E.04186 ; skirt
G1 X115.981 Y106.947 E.31354 ; skirt
G1 X115.257 Y105.668 E.04612 ; skirt
G1 X115.294 Y104.197 E.04612 ; skirt
G1 X115.951 Y103.104 E.03998 ; skirt
M204 S1000 ; adjust acceleration
G1 X116.248 Y103.319 F10800 ; move to first skirt point
M204 S800 ; adjust acceleration
G1 F1200
G1 X123.319 Y96.248 E.31354 ; skirt
G1 X124.52 Y95.601 E.04278 ; skirt
G1 X125.879 Y95.721 E.04278 ; skirt
G1 X126.681 Y96.248 E.03008 ; skirt
G1 X133.752 Y103.319 E.31354 ; skirt
G1 X134.399 Y104.52 E.04278 ; skirt
M73 Q4 S5
G1 X134.279 Y105.879 E.04278 ; skirt
M73 P4 R5
G1 X133.752 Y106.681 E.03008 ; skirt
G1 X126.681 Y113.752 E.31354 ; skirt
G1 X125.48 Y114.399 E.04278 ; skirt
G1 X124.121 Y114.279 E.04278 ; skirt
G1 X123.319 Y113.752 E.03008 ; skirt
G1 X116.248 Y106.681 E.31354 ; skirt
G1 X115.601 Y105.48 E.04278 ; skirt
G1 X115.721 Y104.121 E.04278 ; skirt
G1 X116.215 Y103.369 E.0282 ; skirt
M204 S1000 ; adjust acceleration
; printing object embedded hexagon.STL id:0 copy 0
;WIPE_START
G1 F8640
G1 X118.54 Y101.039 E-.76 ; wipe and retract
;WIPE_END
G1 E-.04 F2100 ; retract
G1 Z.6 F720 ; lift Z
G1 X119.042 Y105 F10800 ; move to first perimeter point
G1 Z.2 F720 ; restore layer Z
G1 E.8 F2100 ;  ; unretract
M204 S800 ; adjust acceleration
;TYPE:Perimeter
G1 F1200
G1 X125 Y99.042 E.26419 ; perimeter
G1 X130.958 Y105 E.26419 ; perimeter
G1 X125 Y110.958 E.26419 ; perimeter
G1 X119.084 Y105.042 E.26231 ; perimeter
M204 S1000 ; adjust acceleration
M73 Q5 S5
G1 X118.509 Y105 F10800 ; move to first perimeter point
M204 S800 ; adjust acceleration
;TYPE:External perimeter
M73 P5 R5
G1 F1200
G1 X125 Y98.509 E.28783 ; perimeter
G1 X131.491 Y105 E.28783 ; perimeter
G1 X125 Y111.491 E.28783 ; perimeter
G1 X118.551 Y105.042 E.28595 ; perimeter
M204 S1000 ; adjust acceleration
G1 X118.855 Y104.8 F10800 ; move inwards before travel
;WIPE_START
G1 F8640
G1 X120.863 Y102.7 E-.76 ; wipe and retract
;WIPE_END
G1 E-.04 F2100 ; retract
G1 Z.6 F720 ; lift Z
G1 X124.875 Y99.327 F10800 ; move to first infill point
G1 Z.2 F720 ; restore layer Z
G1 E.8 F2100 ;  ; unretract
M204 S800 ; adjust acceleration
;TYPE:Solid infill
;WIDTH:0.435173
G1 F1200
G1 X130.553 Y105.005 E.2619 ; infill
G1 X130.275 Y105.283 E.01279 ; infill
G1 X124.717 Y99.725 E.25637 ; infill
G1 X124.44 Y100.002 E.01279 ; infill
M73 Q6 S5
G1 X129.998 Y105.56 E.25637 ; infill
G1 X129.721 Y105.837 E.01279 ; infill
M73 P6 R5
G1 X124.163 Y100.279 E.25637 ; infill
G1 X123.885 Y100.557 E.01279 ; infill
G1 X129.443 Y106.115 E.25637 ; infill
G1 X129.166 Y106.392 E.01279 ; infill
G1 X123.608 Y100.834 E.25637 ; infill
G1 X123.33 Y101.112 E.01279 ; infill
G1 X128.888 Y106.67 E.25637 ; infill
G1 X128.611 Y106.947 E.01279 ; infill
G1 X123.053 Y101.389 E.25637 ; infill
G1 X122.776 Y101.666 E.01279 ; infill
G1 X128.334 Y107.224 E.25637 ; infill
G1 X128.056 Y107.502 E.01279 ; infill
G1 X122.498 Y101.944 E.25637 ; infill
G1 X122.221 Y102.221 E.01279 ; infill
G1 X127.779 Y107.779 E.25637 ; infill
G1 X127.502 Y108.056 E.01279 ; infill
M73 Q7 S5
G1 X121.944 Y102.498 E.25637 ; infill
G1 X121.666 Y102.776 E.01279 ; infill
M73 P7 R5
G1 X127.224 Y108.334 E.25637 ; infill
G1 X126.947 Y108.611 E.01279 ; infill
G1 X121.389 Y103.053 E.25637 ; infill
G1 X121.111 Y103.33 E.01279 ; infill
G1 X126.67 Y108.889 E.25637 ; infill
G1 X126.392 Y109.166 E.01279 ; infill
G1 X120.834 Y103.608 E.25637 ; infill
G1 X120.557 Y103.885 E.01279 ; infill
G1 X126.115 Y109.443 E.25637 ; infill
G1 X125.837 Y109.721 E.01279 ; infill
G1 X120.279 Y104.163 E.25637 ; infill
G1 X120.002 Y104.44 E.01279 ; infill
G1 X125.56 Y109.998 E.25637 ; infill
G1 X125.283 Y110.275 E.01279 ; infill
M73 Q8 S5
G1 X119.725 Y104.717 E.25637 ; infill
G1 X119.447 Y104.995 E.01279 ; infill
M73 P8 R5
G1 X125.125 Y110.673 E.2619 ; infill
M204 S1000 ; adjust acceleration
; stop printing object embedded hexagon.STL id:0 copy 0
;LAYER_CHANGE
;Z:0.4
;HEIGHT:0.2
;BEFORE_LAYER_CHANGE
G92 E0.0
;0.4


;WIPE_START
G1 F8640
G1 X122.798 Y108.345 E-.76 ; wipe and retract
;WIPE_END
G1 E-.04 F2100 ; retract
G1 Z.6 F720 ; lift Z
;AFTER_LAYER_CHANGE
;0.4
G1 X119.822 Y111.321 F10800 ; move to first skirt point
G1 Z.4 F720 ; restore layer Z
G1 E.8 F2100 ;  ; unretract
;TYPE:Skirt/Brim
;WIDTH:0.42
G1 F1282
G1 X115.715 Y107.214 E.18212 ; skirt
G1 X114.918 Y105.861 E.04923 ; skirt
G1 X114.879 Y104.292 E.04923 ; skirt
G1 X115.715 Y102.786 E.054 ; skirt
G1 X122.786 Y95.715 E.31354 ; skirt
G1 X124.139 Y94.918 E.04923 ; skirt
G1 X125.708 Y94.879 E.04923 ; skirt
G1 X127.214 Y95.715 E.054 ; skirt
G1 X134.285 Y102.786 E.31354 ; skirt
G1 X135.082 Y104.139 E.04923 ; skirt
G1 X135.121 Y105.708 E.04923 ; skirt
G1 X134.285 Y107.214 E.054 ; skirt
G1 X127.214 Y114.285 E.31354 ; skirt
G1 X125.861 Y115.082 E.04923 ; skirt
M73 Q9 S5
G1 X124.292 Y115.121 E.04923 ; skirt
G1 X122.786 Y114.285 E.054 ; skirt
G1 X119.864 Y111.364 E.12954 ; skirt
G1 X120.131 Y111.097 F10800 ; move to first skirt point
M73 P9 R5
G1 F1282
G1 X115.981 Y106.947 E.184 ; skirt
G1 X115.257 Y105.668 E.04612 ; skirt
G1 X115.294 Y104.197 E.04612 ; skirt
G1 X115.981 Y103.053 E.04186 ; skirt
G1 X123.053 Y95.981 E.31354 ; skirt
G1 X124.332 Y95.257 E.04612 ; skirt
G1 X125.803 Y95.294 E.04612 ; skirt
G1 X126.947 Y95.981 E.04186 ; skirt
G1 X134.019 Y103.053 E.31354 ; skirt
G1 X134.743 Y104.332 E.04612 ; skirt
G1 X134.706 Y105.803 E.04612 ; skirt
G1 X134.019 Y106.947 E.04186 ; skirt
G1 X126.947 Y114.019 E.31354 ; skirt
G1 X125.668 Y114.743 E.04612 ; skirt
G1 X124.197 Y114.706 E.04612 ; skirt
G1 X123.053 Y114.019 E.04186 ; skirt
G1 X120.173 Y111.139 E.12766 ; skirt
G1 X120.44 Y110.873 F10800 ; move to first skirt point
G1 F1282
G1 X116.248 Y106.681 E.18588 ; skirt
G1 X115.601 Y105.48 E.04278 ; skirt
G1 X115.721 Y104.121 E.04278 ; skirt
M73 Q10 S5
G1 X116.248 Y103.319 E.03008 ; skirt
G1 X123.319 Y96.248 E.31354 ; skirt
G1 X124.52 Y95.601 E.04278 ; skirt
M73 P10 R5
G1 X125.879 Y95.721 E.04278 ; skirt
G1 X126.681 Y96.248 E.03008 ; skirt
G1 X133.752 Y103.319 E.31354 ; skirt
G1 X134.399 Y104.52 E.04278 ; skirt
G1 X134.279 Y105.879 E.04278 ; skirt
G1 X133.752 Y106.681 E.03008 ; skirt
G1 X126.681 Y113.752 E.31354 ; skirt
G1 X125.48 Y114.399 E.04278 ; skirt
G1 X124.121 Y114.279 E.04278 ; skirt
G1 X123.319 Y113.752 E.03008 ; skirt
G1 X120.483 Y110.915 E.12578 ; skirt
; printing object embedded hexagon.STL id:0 copy 0
;WIPE_START
G1 F8640
G1 X118.155 Y108.588 E-.76 ; wipe and retract
;WIPE_END
G1 E-.04 F2100 ; retract
G1 Z.8 F720 ; lift Z
G1 X125 Y111.177 F10800 ; move to first perimeter point
G1 Z.4 F720 ; restore layer Z
G1 E.8 F2100 ;  ; unretract
M204 S800 ; adjust acceleration
;TYPE:Perimeter
;WIDTH:0.45
G1 F1282
G1 X118.823 Y105 E.2957 ; perimeter
G1 X125 Y98.823 E.2957 ; perimeter
G1 X131.177 Y105 E.2957 ; perimeter
G1 X125.042 Y111.135 E.29367 ; perimeter
M204 S1000 ; adjust acceleration
M73 P11 R5
M73 Q11 S5
G1 X125 Y111.753 F10800 ; move to first perimeter point
M204 S800 ; adjust acceleration
;TYPE:External perimeter
G1 F1282
G1 X118.247 Y105 E.32326 ; perimeter
G1 X125 Y98.247 E.32326 ; perimeter
G1 X131.753 Y105 E.32326 ; perimeter
G1 X125.042 Y111.71 E.32123 ; perimeter
M204 S1000 ; adjust acceleration
G1 X124.8 Y111.406 F10800 ; move inwards before travel
;WIPE_START
G1 F8640
G1 X122.7 Y109.398 E-.76 ; wipe and retract
;WIPE_END
G1 E-.04 F2100 ; retract
G1 Z.8 F720 ; lift Z
G1 X130.868 Y104.864 F10800 ; move to first infill point
G1 Z.4 F720 ; restore layer Z
G1 E.8 F2100 ;  ; unretract
;TYPE:Solid infill
;WIDTH:0.469535
G1 F1282
G1 X124.993 Y110.738 E.29473 ; infill
G1 X124.691 Y110.437 E.01513 ; infill
G1 X130.437 Y104.691 E.28823 ; infill
G1 X130.135 Y104.39 E.01513 ; infill
M73 P12 R5
M73 Q12 S5
G1 X124.39 Y110.135 E.28823 ; infill
G1 X124.088 Y109.833 E.01513 ; infill
G1 X129.833 Y104.088 E.28823 ; infill
G1 X129.532 Y103.786 E.01513 ; infill
G1 X123.786 Y109.532 E.28823 ; infill
G1 X123.485 Y109.23 E.01513 ; infill
G1 X129.23 Y103.485 E.28823 ; infill
G1 X128.928 Y103.183 E.01513 ; infill
G1 X123.183 Y108.928 E.28823 ; infill
G1 X122.881 Y108.627 E.01513 ; infill
G1 X128.627 Y102.881 E.28823 ; infill
G1 X128.325 Y102.58 E.01513 ; infill
G1 X122.58 Y108.325 E.28823 ; infill
G1 X122.278 Y108.023 E.01513 ; infill
G1 X128.023 Y102.278 E.28823 ; infill
G1 X127.722 Y101.976 E.01513 ; infill
M73 Q13 S5
G1 X121.976 Y107.722 E.28823 ; infill
G1 X121.675 Y107.42 E.01513 ; infill
M73 P13 R5
G1 X127.42 Y101.675 E.28823 ; infill
G1 X127.119 Y101.373 E.01513 ; infill
G1 X121.373 Y107.119 E.28823 ; infill
G1 X121.071 Y106.817 E.01513 ; infill
G1 X126.817 Y101.071 E.28823 ; infill
G1 X126.515 Y100.77 E.01513 ; infill
G1 X120.77 Y106.515 E.28823 ; infill
G1 X120.468 Y106.214 E.01513 ; infill
G1 X126.214 Y100.468 E.28823 ; infill
G1 X125.912 Y100.166 E.01513 ; infill
G1 X120.166 Y105.912 E.28823 ; infill
G1 X119.865 Y105.61 E.01513 ; infill
G1 X125.61 Y99.865 E.28823 ; infill
G1 X125.309 Y99.563 E.01513 ; infill
G1 X119.563 Y105.309 E.28823 ; infill
G1 X119.261 Y105.007 E.01513 ; infill
M73 Q14 S5
G1 X125.136 Y99.132 E.29473 ; infill
; stop printing object embedded hexagon.STL id:0 copy 0
;LAYER_CHANGE
;Z:0.6
;HEIGHT:0.2
;BEFORE_LAYER_CHANGE
G92 E0.0
;0.6


;WIPE_START
G1 F8640
M73 P14 R5
G1 X122.809 Y101.459 E-.76 ; wipe and retract
;WIPE_END
G1 E-.04 F2100 ; retract
G1 Z.8 F720 ; lift Z
;AFTER_LAYER_CHANGE
;0.6
G1 X119.925 Y98.576 F10800 ; move to first skirt point
G1 Z.6 F720 ; restore layer Z
G1 E.8 F2100 ;  ; unretract
;TYPE:Skirt/Brim
;WIDTH:0.42
G1 F1269
G1 X122.786 Y95.715 E.12685 ; skirt
G1 X124.139 Y94.918 E.04923 ; skirt
G1 X125.708 Y94.879 E.04923 ; skirt
G1 X127.214 Y95.715 E.054 ; skirt
G1 X134.285 Y102.786 E.31354 ; skirt
G1 X135.082 Y104.139 E.04923 ; skirt
G1 X135.121 Y105.708 E.04923 ; skirt
G1 X134.285 Y107.214 E.054 ; skirt
G1 X127.214 Y114.285 E.31354 ; skirt
G1 X125.861 Y115.082 E.04923 ; skirt
G1 X124.292 Y115.121 E.04923 ; skirt
G1 X122.786 Y114.285 E.054 ; skirt
G1 X115.715 Y107.214 E.31354 ; skirt
G1 X114.918 Y105.861 E.04923 ; skirt
G1 X114.879 Y104.292 E.04923 ; skirt
G1 X115.715 Y102.786 E.054 ; skirt
G1 X119.883 Y98.618 E.18481 ; skirt
G1 X120.149 Y98.885 F10800 ; move to first skirt point
M73 Q15 S5
G1 F1269
G1 X123.053 Y95.981 E.12873 ; skirt
G1 X124.332 Y95.257 E.04612 ; skirt
M73 P15 R5
G1 X125.803 Y95.294 E.04612 ; skirt
G1 X126.947 Y95.981 E.04186 ; skirt
G1 X134.019 Y103.053 E.31354 ; skirt
G1 X134.743 Y104.332 E.04612 ; skirt
G1 X134.706 Y105.803 E.04612 ; skirt
G1 X134.019 Y106.947 E.04186 ; skirt
G1 X126.947 Y114.019 E.31354 ; skirt
G1 X125.668 Y114.743 E.04612 ; skirt
G1 X124.197 Y114.706 E.04612 ; skirt
G1 X123.053 Y114.019 E.04186 ; skirt
G1 X115.981 Y106.947 E.31354 ; skirt
G1 X115.257 Y105.668 E.04612 ; skirt
G1 X115.294 Y104.197 E.04612 ; skirt
G1 X115.981 Y103.053 E.04186 ; skirt
G1 X120.107 Y98.927 E.18293 ; skirt
G1 X120.374 Y99.194 F10800 ; move to first skirt point
G1 F1269
G1 X123.319 Y96.248 E.13061 ; skirt
G1 X124.52 Y95.601 E.04278 ; skirt
G1 X125.879 Y95.721 E.04278 ; skirt
G1 X126.681 Y96.248 E.03008 ; skirt
G1 X133.752 Y103.319 E.31354 ; skirt
G1 X134.399 Y104.52 E.04278 ; skirt
M73 Q16 S5
G1 X134.279 Y105.879 E.04278 ; skirt
G1 X133.752 Y106.681 E.03008 ; skirt
M73 P16 R5
G1 X126.681 Y113.752 E.31354 ; skirt
G1 X125.48 Y114.399 E.04278 ; skirt
G1 X124.121 Y114.279 E.04278 ; skirt
M73 Q16 S4
G1 X123.319 Y113.752 E.03008 ; skirt
G1 X116.248 Y106.681 E.31354 ; skirt
M73 P16 R4
G1 X115.601 Y105.48 E.04278 ; skirt
G1 X115.721 Y104.121 E.04278 ; skirt
G1 X116.248 Y103.319 E.03008 ; skirt
G1 X120.331 Y99.236 E.18105 ; skirt
; printing object embedded hexagon.STL id:0 copy 0
;WIPE_START
G1 F8640
G1 X122.659 Y96.909 E-.76 ; wipe and retract
;WIPE_END
G1 E-.04 F2100 ; retract
G1 Z1 F720 ; lift Z
G1 X125 Y98.823 F10800 ; move to first perimeter point
G1 Z.6 F720 ; restore layer Z
G1 E.8 F2100 ;  ; unretract
M204 S800 ; adjust acceleration
;TYPE:Perimeter
;WIDTH:0.45
G1 F1269
G1 X131.177 Y105 E.2957 ; perimeter
G1 X125 Y111.177 E.2957 ; perimeter
G1 X118.823 Y105 E.2957 ; perimeter
G1 X124.958 Y98.865 E.29367 ; perimeter
M204 S1000 ; adjust acceleration
M73 Q17 S4
G1 X125 Y98.247 F10800 ; move to first perimeter point
M204 S800 ; adjust acceleration
;TYPE:External perimeter
M73 P17 R4
G1 F1269
G1 X131.753 Y105 E.32326 ; perimeter
G1 X125 Y111.753 E.32326 ; perimeter
G1 X118.247 Y105 E.32326 ; perimeter
G1 X124.958 Y98.29 E.32123 ; perimeter
M204 S1000 ; adjust acceleration
G1 X125.2 Y98.594 F10800 ; move inwards before travel
G1 X124.864 Y99.132 ; move to first infill point
;TYPE:Solid infill
;WIDTH:0.469535
G1 F1269
G1 X130.738 Y105.007 E.29473 ; infill
G1 X130.437 Y105.309 E.01513 ; infill
G1 X124.691 Y99.563 E.28823 ; infill
G1 X124.39 Y99.865 E.01513 ; infill
G1 X130.135 Y105.61 E.28823 ; infill
G1 X129.833 Y105.912 E.01513 ; infill
M73 Q18 S4
G1 X124.088 Y100.167 E.28823 ; infill
G1 X123.786 Y100.468 E.01513 ; infill
M73 P18 R4
G1 X129.532 Y106.214 E.28823 ; infill
G1 X129.23 Y106.515 E.01513 ; infill
G1 X123.485 Y100.77 E.28823 ; infill
G1 X123.183 Y101.072 E.01513 ; infill
G1 X128.928 Y106.817 E.28823 ; infill
