; generated by PrusaSlicer 2.4.2+win64 on 2022-06-03 at 03:03:22 UTC


;
;
; 

; external perimeters extrusion width = 0.45mm
; perimeters extrusion width = 0.45mm
; infill extrusion width = 0.45mm
; solid infill extrusion width = 0.45mm
; top infill extrusion width = 0.40mm
; first layer extrusion width = 0.42mm

M73 P0 R20
M73 Q0 S20
M201 X1000 Y1000 Z200 E5000 ; sets maximum accelerations, mm/sec^2
M203 X200 Y200 Z12 E120 ; sets maximum feedrates, mm / sec
M204 P1250 R1250 T1250 ; sets acceleration (P, T) and retract acceleration (R), mm/sec^2
M205 X8.00 Y8.00 Z0.40 E4.50 ; sets the jerk limits, mm/sec
M205 S0 T0 ; sets the minimum extruding and travel feed rate, mm/sec
M107 ; disable fan
;TYPE:Custom
M862.3 P "MK3S" ; printer model check
M862.1 P0.4 ; nozzle diameter check
M115 U3.11.0 ; tell printer latest fw version
G90 ; use absolute coordinates
M83 ; extruder relative mode
M104 S210 ; set extruder temp
M140 S60 ; set bed temp
M190 S60 ; wait for bed temp
M109 S210 ; wait for extruder temp
G28 W ; home all without mesh bed level
G80 ; mesh bed leveling
G1 Z0.2 F720
G1 Y-3 F1000 ; go outside print area
G92 E0
G1 X60 E9 F1000 ; intro line
G1 X100 E12.5 F1000 ; intro line
G92 E0
M221 S95

; Don't change E values below. Excessive value can damage the printer.

M907 E538 ; set extruder motor current
G21 ; set units to millimeters
G90 ; use absolute coordinates
M83 ; use relative distances for extrusion
M900 K30 ; Filament gcode
M107 ; disable fan
;LAYER_CHANGE
;Z:0.2
;HEIGHT:0.2
;BEFORE_LAYER_CHANGE
G92 E0.0
;0.2


G1 E-.8 F2100 ; retract
G1 Z.4 F720 ; lift Z
;AFTER_LAYER_CHANGE
;0.2
G1 X112.639 Y93.583 F10800 ; move to first skirt point
G1 Z.2 F720 ; restore layer Z
G1 E.8 F2100 ;  ; unretract
M204 S800 ; adjust acceleration
;TYPE:Skirt/Brim
;WIDTH:0.42
G1 F1200
G1 X113.705 Y92.569 E.04612 ; skirt
G1 X115 Y92.246 E.04186 ; skirt
G1 X135 Y92.246 E.62709 ; skirt
G1 X136.417 Y92.639 E.04612 ; skirt
G1 X137.431 Y93.705 E.04612 ; skirt
G1 X137.754 Y95 E.04186 ; skirt
G1 X137.754 Y115 E.62709 ; skirt
G1 X137.361 Y116.417 E.04612 ; skirt
G1 X136.295 Y117.431 E.04612 ; skirt
G1 X135 Y117.754 E.04186 ; skirt
G1 X115 Y117.754 E.62709 ; skirt
G1 X113.583 Y117.361 E.04612 ; skirt
G1 X112.569 Y116.295 E.04612 ; skirt
G1 X112.246 Y115 E.04186 ; skirt
G1 X112.246 Y95 E.62709 ; skirt
G1 X112.623 Y93.64 E.04424 ; skirt
M204 S1000 ; adjust acceleration
G1 X112.997 Y93.752 F10800 ; move to first skirt point
M204 S800 ; adjust acceleration
G1 F1200
G1 X113.015 Y93.693 E.00195 ; skirt
G1 X114.06 Y92.817 E.04278 ; skirt
G1 X115 Y92.623 E.03008 ; skirt
G1 X135 Y92.623 E.62709 ; skirt
G1 X136.307 Y93.015 E.04278 ; skirt
M73 P1 R20
M73 Q1 S20
G1 X137.183 Y94.06 E.04278 ; skirt
G1 X137.377 Y95 E.03008 ; skirt
G1 X137.377 Y115 E.62709 ; skirt
G1 X136.985 Y116.307 E.04278 ; skirt
G1 X135.94 Y117.183 E.04278 ; skirt
G1 X135 Y117.377 E.03008 ; skirt
G1 X115 Y117.377 E.62709 ; skirt
G1 X113.693 Y116.985 E.04278 ; skirt
G1 X112.817 Y115.94 E.04278 ; skirt
G1 X112.623 Y115 E.03008 ; skirt
G1 X112.623 Y95 E.62709 ; skirt
G1 X112.979 Y93.81 E.03895 ; skirt
M204 S1000 ; adjust acceleration
; printing object embedded hexagon.STL id:0 copy 0
;WIPE_START
G1 F8640
G1 X113.015 Y93.693 E-.0282 ; wipe and retract
G1 X114.06 Y92.817 E-.31505 ; wipe and retract
G1 X115 Y92.623 E-.22155 ; wipe and retract
G1 X115.845 Y92.623 E-.1952 ; wipe and retract
;WIPE_END
G1 E-.04 F2100 ; retract
G1 Z.6 F720 ; lift Z
G1 X115.787 Y95.787 F10800 ; move to first perimeter point
G1 Z.2 F720 ; restore layer Z
G1 E.8 F2100 ;  ; unretract
M204 S800 ; adjust acceleration
;TYPE:Perimeter
G1 F1200
G1 X134.213 Y95.787 E.57773 ; perimeter
G1 X134.213 Y114.213 E.57773 ; perimeter
G1 X115.787 Y114.213 E.57773 ; perimeter
G1 X115.787 Y95.847 E.57585 ; perimeter
M204 S1000 ; adjust acceleration
G1 X115.41 Y95.41 F10800 ; move to first perimeter point
M204 S800 ; adjust acceleration
;TYPE:External perimeter
G1 F1200
G1 X134.59 Y95.41 E.60138 ; perimeter
G1 X134.59 Y114.59 E.60138 ; perimeter
G1 X115.41 Y114.59 E.60138 ; perimeter
G1 X115.41 Y95.47 E.59949 ; perimeter
M204 S1000 ; adjust acceleration
G1 X115.796 Y95.514 F10800 ; move inwards before travel
;WIPE_START
M73 Q2 S20
G1 F8640
G1 X118.701 Y95.46 E-.76 ; wipe and retract
;WIPE_END
G1 E-.04 F2100 ; retract
G1 Z.6 F720 ; lift Z
G1 X133.333 Y95.9 F10800 ; move to first infill point
G1 Z.2 F720 ; restore layer Z
M73 P2 R20
G1 E.8 F2100 ;  ; unretract
M204 S800 ; adjust acceleration
;TYPE:Solid infill
;WIDTH:0.422206
G1 F1200
G1 X133.93 Y96.497 E.02664 ; infill
G1 X133.93 Y97.034 E.01692 ; infill
G1 X132.966 Y96.07 E.04299 ; infill
G1 X132.43 Y96.07 E.01692 ; infill
G1 X133.93 Y97.57 E.06692 ; infill
G1 X133.93 Y98.107 E.01692 ; infill
G1 X131.893 Y96.07 E.09084 ; infill
G1 X131.357 Y96.07 E.01692 ; infill
G1 X133.93 Y98.643 E.11477 ; infill
G1 X133.93 Y99.179 E.01692 ; infill
G1 X130.821 Y96.07 E.13869 ; infill
G1 X130.284 Y96.07 E.01692 ; infill
G1 X133.93 Y99.716 E.16261 ; infill
G1 X133.93 Y100.252 E.01692 ; infill
G1 X129.748 Y96.07 E.18654 ; infill
G1 X129.211 Y96.07 E.01692 ; infill
G1 X133.93 Y100.789 E.21046 ; infill
G1 X133.93 Y101.325 E.01692 ; infill
G1 X128.675 Y96.07 E.23438 ; infill
G1 X128.139 Y96.07 E.01692 ; infill
G1 X133.93 Y101.861 E.25831 ; infill
G1 X133.93 Y102.398 E.01692 ; infill
G1 X127.602 Y96.07 E.28223 ; infill
G1 X127.066 Y96.07 E.01692 ; infill
G1 X133.93 Y102.934 E.30615 ; infill
G1 X133.93 Y103.471 E.01692 ; infill
G1 X126.529 Y96.07 E.33008 ; infill
G1 X125.993 Y96.07 E.01692 ; infill
G1 X133.93 Y104.007 E.354 ; infill
G1 X133.93 Y104.543 E.01692 ; infill
G1 X125.457 Y96.07 E.37793 ; infill
G1 X124.92 Y96.07 E.01692 ; infill
G1 X133.93 Y105.08 E.40185 ; infill
G1 X133.93 Y105.616 E.01692 ; infill
G1 X124.384 Y96.07 E.42577 ; infill
G1 X123.847 Y96.07 E.01692 ; infill
G1 X133.93 Y106.153 E.4497 ; infill
G1 X133.93 Y106.689 E.01692 ; infill
G1 X123.311 Y96.07 E.47362 ; infill
G1 X122.775 Y96.07 E.01692 ; infill
G1 X133.93 Y107.225 E.49754 ; infill
G1 X133.93 Y107.762 E.01692 ; infill
G1 X122.238 Y96.07 E.52147 ; infill
G1 X121.702 Y96.07 E.01692 ; infill
G1 X133.93 Y108.298 E.54539 ; infill
G1 X133.93 Y108.834 E.01692 ; infill
G1 X121.166 Y96.07 E.56931 ; infill
G1 X120.629 Y96.07 E.01692 ; infill
M73 Q3 S20
G1 X133.93 Y109.371 E.59324 ; infill
M73 P3 R20
G1 X133.93 Y109.907 E.01692 ; infill
G1 X120.093 Y96.07 E.61716 ; infill
G1 X119.556 Y96.07 E.01692 ; infill
G1 X133.93 Y110.444 E.64109 ; infill
G1 X133.93 Y110.98 E.01692 ; infill
G1 X119.02 Y96.07 E.66501 ; infill
G1 X118.484 Y96.07 E.01692 ; infill
G1 X133.93 Y111.516 E.68893 ; infill
G1 X133.93 Y112.053 E.01692 ; infill
G1 X117.947 Y96.07 E.71286 ; infill
G1 X117.411 Y96.07 E.01692 ; infill
G1 X133.93 Y112.589 E.73678 ; infill
G1 X133.93 Y113.126 E.01692 ; infill
G1 X116.874 Y96.07 E.7607 ; infill
G1 X116.338 Y96.07 E.01692 ; infill
G1 X133.93 Y113.662 E.78463 ; infill
G1 X133.93 Y113.93 E.00846 ; infill
G1 X133.662 Y113.93 E.00846 ; infill
G1 X116.07 Y96.338 E.78462 ; infill
G1 X116.07 Y96.875 E.01692 ; infill
G1 X133.125 Y113.93 E.7607 ; infill
G1 X132.589 Y113.93 E.01692 ; infill
M73 P4 R19
M73 Q4 S20
G1 X116.07 Y97.411 E.73678 ; infill
G1 X116.07 Y97.947 E.01692 ; infill
M73 Q4 S19
G1 X132.053 Y113.93 E.71285 ; infill
G1 X131.516 Y113.93 E.01692 ; infill
G1 X116.07 Y98.484 E.68893 ; infill
G1 X116.07 Y99.02 E.01692 ; infill
G1 X130.98 Y113.93 E.665 ; infill
G1 X130.444 Y113.93 E.01692 ; infill
G1 X116.07 Y99.556 E.64108 ; infill
G1 X116.07 Y100.093 E.01692 ; infill
G1 X129.907 Y113.93 E.61716 ; infill
G1 X129.371 Y113.93 E.01692 ; infill
G1 X116.07 Y100.629 E.59323 ; infill
G1 X116.07 Y101.166 E.01692 ; infill
G1 X128.834 Y113.93 E.56931 ; infill
G1 X128.298 Y113.93 E.01692 ; infill
G1 X116.07 Y101.702 E.54539 ; infill
G1 X116.07 Y102.238 E.01692 ; infill
G1 X127.762 Y113.93 E.52146 ; infill
G1 X127.225 Y113.93 E.01692 ; infill
G1 X116.07 Y102.775 E.49754 ; infill
G1 X116.07 Y103.311 E.01692 ; infill
G1 X126.689 Y113.93 E.47362 ; infill
G1 X126.152 Y113.93 E.01692 ; infill
M73 Q5 S19
G1 X116.07 Y103.848 E.44969 ; infill
G1 X116.07 Y104.384 E.01692 ; infill
M73 P5 R19
G1 X125.616 Y113.93 E.42577 ; infill
G1 X125.08 Y113.93 E.01692 ; infill
G1 X116.07 Y104.92 E.40184 ; infill
G1 X116.07 Y105.457 E.01692 ; infill
G1 X124.543 Y113.93 E.37792 ; infill
G1 X124.007 Y113.93 E.01692 ; infill
G1 X116.07 Y105.993 E.354 ; infill
G1 X116.07 Y106.53 E.01692 ; infill
G1 X123.47 Y113.93 E.33007 ; infill
G1 X122.934 Y113.93 E.01692 ; infill
G1 X116.07 Y107.066 E.30615 ; infill
G1 X116.07 Y107.602 E.01692 ; infill
G1 X122.398 Y113.93 E.28223 ; infill
G1 X121.861 Y113.93 E.01692 ; infill
G1 X116.07 Y108.139 E.2583 ; infill
G1 X116.07 Y108.675 E.01692 ; infill
G1 X121.325 Y113.93 E.23438 ; infill
G1 X120.788 Y113.93 E.01692 ; infill
G1 X116.07 Y109.212 E.21046 ; infill
G1 X116.07 Y109.748 E.01692 ; infill
G1 X120.252 Y113.93 E.18653 ; infill
G1 X119.716 Y113.93 E.01692 ; infill
G1 X116.07 Y110.284 E.16261 ; infill
G1 X116.07 Y110.821 E.01692 ; infill
G1 X119.179 Y113.93 E.13868 ; infill
G1 X118.643 Y113.93 E.01692 ; infill
G1 X116.07 Y111.357 E.11476 ; infill
G1 X116.07 Y111.893 E.01692 ; infill
G1 X118.107 Y113.93 E.09084 ; infill
G1 X117.57 Y113.93 E.01692 ; infill
G1 X116.07 Y112.43 E.06691 ; infill
G1 X116.07 Y112.966 E.01692 ; infill
G1 X117.034 Y113.93 E.04299 ; infill
G1 X116.497 Y113.93 E.01692 ; infill
G1 X115.9 Y113.333 E.02663 ; infill
M204 S1000 ; adjust acceleration
; stop printing object embedded hexagon.STL id:0 copy 0
;LAYER_CHANGE
;Z:0.4
;HEIGHT:0.2
;BEFORE_LAYER_CHANGE
G92 E0.0
;0.4


;WIPE_START
G1 F8640
G1 X116.497 Y113.93 E-.195 ; wipe and retract
G1 X117.034 Y113.93 E-.12385 ; wipe and retract
G1 X116.07 Y112.966 E-.31475 ; wipe and retract
G1 X116.07 Y112.43 E-.12385 ; wipe and retract
G1 X116.078 Y112.438 E-.00254 ; wipe and retract
;WIPE_END
G1 E-.04 F2100 ; retract
G1 Z.6 F720 ; lift Z
;AFTER_LAYER_CHANGE
;0.4
G1 X112.246 Y112.438 F10800 ; move to first skirt point
G1 Z.4 F720 ; restore layer Z
G1 E.8 F2100 ;  ; unretract
;TYPE:Skirt/Brim
;WIDTH:0.42
G1 F3000
G1 X112.246 Y95 E.54675 ; skirt
G1 X112.639 Y93.583 E.04612 ; skirt
G1 X113.705 Y92.569 E.04612 ; skirt
G1 X115 Y92.246 E.04186 ; skirt
G1 X135 Y92.246 E.62709 ; skirt
G1 X136.417 Y92.639 E.04612 ; skirt
G1 X137.431 Y93.705 E.04612 ; skirt
G1 X137.754 Y95 E.04186 ; skirt
G1 X137.754 Y115 E.62709 ; skirt
G1 X137.361 Y116.417 E.04612 ; skirt
G1 X136.295 Y117.431 E.04612 ; skirt
G1 X135 Y117.754 E.04186 ; skirt
G1 X115 Y117.754 E.62709 ; skirt
G1 X113.583 Y117.361 E.04612 ; skirt
G1 X112.569 Y116.295 E.04612 ; skirt
G1 X112.246 Y115 E.04186 ; skirt
G1 X112.246 Y112.498 E.07846 ; skirt
G1 X112.623 Y112.498 F10800 ; move to first skirt point
G1 F3000
G1 X112.623 Y95 E.54863 ; skirt
G1 X113.015 Y93.693 E.04278 ; skirt
G1 X114.06 Y92.817 E.04278 ; skirt
G1 X115 Y92.623 E.03008 ; skirt
G1 X135 Y92.623 E.62709 ; skirt
G1 X136.307 Y93.015 E.04278 ; skirt
G1 X137.183 Y94.06 E.04278 ; skirt
G1 X137.377 Y95 E.03008 ; skirt
G1 X137.377 Y115 E.62709 ; skirt
G1 X136.985 Y116.307 E.04278 ; skirt
G1 X135.94 Y117.183 E.04278 ; skirt
G1 X135 Y117.377 E.03008 ; skirt
G1 X115 Y117.377 E.62709 ; skirt
G1 X113.693 Y116.985 E.04278 ; skirt
G1 X112.817 Y115.94 E.04278 ; skirt
M73 Q6 S19
G1 X112.623 Y115 E.03008 ; skirt
G1 X112.623 Y112.558 E.07658 ; skirt
; printing object embedded hexagon.STL id:0 copy 0
;WIPE_START
G1 F8640
G1 X112.623 Y109.266 E-.76 ; wipe and retract
;WIPE_END
G1 E-.04 F2100 ; retract
G1 Z.8 F720 ; lift Z
G1 X115.632 Y114.368 F10800 ; move to first perimeter point
M73 P6 R19
G1 Z.4 F720 ; restore layer Z
G1 E.8 F2100 ;  ; unretract
M204 S800 ; adjust acceleration
;TYPE:Perimeter
;WIDTH:0.45
G1 F3600
G1 X115.632 Y95.632 E.63419 ; perimeter
G1 X134.368 Y95.632 E.63419 ; perimeter
G1 X134.368 Y114.368 E.63419 ; perimeter
G1 X115.692 Y114.368 E.63216 ; perimeter
M204 S1000 ; adjust acceleration
G1 X115.225 Y114.775 F10800 ; move to first perimeter point
M204 S800 ; adjust acceleration
;TYPE:External perimeter
G1 F2100
G1 X115.225 Y95.225 E.66174 ; perimeter
G1 X134.775 Y95.225 E.66174 ; perimeter
G1 X134.775 Y114.775 E.66174 ; perimeter
G1 X115.285 Y114.775 E.65971 ; perimeter
M204 S1000 ; adjust acceleration
G1 X115.329 Y114.389 F10800 ; move inwards before travel
;WIPE_START
G1 F8640
G1 X115.275 Y111.484 E-.76 ; wipe and retract
;WIPE_END
G1 E-.04 F2100 ; retract
G1 Z.8 F720 ; lift Z
G1 X134.246 Y113.418 F10800 ; move to first infill point
G1 Z.4 F720 ; restore layer Z
G1 E.8 F2100 ;  ; unretract
;TYPE:Solid infill
;WIDTH:0.452429
G1 F4140
G1 X133.601 Y114.063 E.03105 ; infill
G1 X133.022 Y114.063 E.01972 ; infill
G1 X134.063 Y113.022 E.05012 ; infill
G1 X134.063 Y112.443 E.01972 ; infill
G1 X132.443 Y114.063 E.07801 ; infill
G1 X131.864 Y114.063 E.01972 ; infill
G1 X134.063 Y111.864 E.1059 ; infill
G1 X134.063 Y111.284 E.01972 ; infill
G1 X131.284 Y114.063 E.13379 ; infill
G1 X130.705 Y114.063 E.01972 ; infill
G1 X134.063 Y110.705 E.16167 ; infill
G1 X134.063 Y110.126 E.01972 ; infill
G1 X130.126 Y114.063 E.18956 ; infill
G1 X129.547 Y114.063 E.01972 ; infill
G1 X134.063 Y109.547 E.21745 ; infill
G1 X134.063 Y108.968 E.01972 ; infill
G1 X128.968 Y114.063 E.24534 ; infill
G1 X128.389 Y114.063 E.01972 ; infill
G1 X134.063 Y108.389 E.27323 ; infill
G1 X134.063 Y107.81 E.01972 ; infill
G1 X127.81 Y114.063 E.30112 ; infill
G1 X127.23 Y114.063 E.01972 ; infill
G1 X134.063 Y107.23 E.329 ; infill
G1 X134.063 Y106.651 E.01972 ; infill
G1 X126.651 Y114.063 E.35689 ; infill
G1 X126.072 Y114.063 E.01972 ; infill
G1 X134.063 Y106.072 E.38478 ; infill
G1 X134.063 Y105.493 E.01972 ; infill
G1 X125.493 Y114.063 E.41267 ; infill
G1 X124.914 Y114.063 E.01972 ; infill
G1 X134.063 Y104.914 E.44056 ; infill
G1 X134.063 Y104.335 E.01972 ; infill
G1 X124.335 Y114.063 E.46844 ; infill
G1 X123.756 Y114.063 E.01972 ; infill
G1 X134.063 Y103.756 E.49633 ; infill
G1 X134.063 Y103.177 E.01972 ; infill
G1 X123.177 Y114.063 E.52422 ; infill
G1 X122.597 Y114.063 E.01972 ; infill
G1 X134.063 Y102.597 E.55211 ; infill
G1 X134.063 Y102.018 E.01972 ; infill
G1 X122.018 Y114.063 E.58 ; infill
G1 X121.439 Y114.063 E.01972 ; infill
G1 X134.063 Y101.439 E.60789 ; infill
G1 X134.063 Y100.86 E.01972 ; infill
G1 X120.86 Y114.063 E.63577 ; infill
G1 X120.281 Y114.063 E.01972 ; infill
G1 X134.063 Y100.281 E.66366 ; infill
G1 X134.063 Y99.702 E.01972 ; infill
G1 X119.702 Y114.063 E.69155 ; infill
G1 X119.123 Y114.063 E.01972 ; infill
G1 X134.063 Y99.123 E.71944 ; infill
G1 X134.063 Y98.543 E.01972 ; infill
G1 X118.543 Y114.063 E.74733 ; infill
G1 X117.964 Y114.063 E.01972 ; infill
G1 X134.063 Y97.964 E.77521 ; infill
G1 X134.063 Y97.385 E.01972 ; infill
G1 X117.385 Y114.063 E.8031 ; infill
G1 X116.806 Y114.063 E.01972 ; infill
G1 X134.063 Y96.806 E.83099 ; infill
M73 Q7 S19
G1 X134.063 Y96.227 E.01972 ; infill
M73 P7 R19
G1 X116.227 Y114.063 E.85888 ; infill
G1 X115.937 Y114.063 E.00986 ; infill
G1 X115.937 Y113.773 E.00986 ; infill
G1 X133.773 Y95.937 E.85888 ; infill
G1 X133.194 Y95.937 E.01972 ; infill
G1 X115.937 Y113.194 E.83099 ; infill
G1 X115.937 Y112.615 E.01972 ; infill
G1 X132.615 Y95.937 E.8031 ; infill
G1 X132.036 Y95.937 E.01972 ; infill
G1 X115.937 Y112.036 E.77521 ; infill
G1 X115.937 Y111.456 E.01972 ; infill
G1 X131.456 Y95.937 E.74732 ; infill
G1 X130.877 Y95.937 E.01972 ; infill
G1 X115.937 Y110.877 E.71944 ; infill
G1 X115.937 Y110.298 E.01972 ; infill
G1 X130.298 Y95.937 E.69155 ; infill
G1 X129.719 Y95.937 E.01972 ; infill
G1 X115.937 Y109.719 E.66366 ; infill
G1 X115.937 Y109.14 E.01972 ; infill
G1 X129.14 Y95.937 E.63577 ; infill
G1 X128.561 Y95.937 E.01972 ; infill
G1 X115.937 Y108.561 E.60788 ; infill
G1 X115.937 Y107.982 E.01972 ; infill
G1 X127.982 Y95.937 E.57999 ; infill
G1 X127.403 Y95.937 E.01972 ; infill
G1 X115.937 Y107.403 E.55211 ; infill
G1 X115.937 Y106.823 E.01972 ; infill
G1 X126.823 Y95.937 E.52422 ; infill
G1 X126.244 Y95.937 E.01972 ; infill
G1 X115.937 Y106.244 E.49633 ; infill
G1 X115.937 Y105.665 E.01972 ; infill
G1 X125.665 Y95.937 E.46844 ; infill
