; generated by PrusaSlicer 2.4.2+win64 on 2022-06-05 at 16:19:02 UTC


;
;
; 

; external perimeters extrusion width = 0.45mm
; perimeters extrusion width = 0.45mm
; infill extrusion width = 0.45mm
; solid infill extrusion width = 0.45mm
; top infill extrusion width = 0.40mm
; first layer extrusion width = 0.42mm

M73 P0 R33
M73 Q0 S33
M201 X1000 Y1000 Z200 E5000 ; sets maximum accelerations, mm/sec^2
M203 X200 Y200 Z12 E120 ; sets maximum feedrates, mm / sec
M204 P1250 R1250 T1250 ; sets acceleration (P, T) and retract acceleration (R), mm/sec^2
M205 X8.00 Y8.00 Z0.40 E4.50 ; sets the jerk limits, mm/sec
M205 S0 T0 ; sets the minimum extruding and travel feed rate, mm/sec
M107 ; disable fan
;TYPE:Custom
M862.3 P "MK3S" ; printer model check
M862.1 P0.4 ; nozzle diameter check
M115 U3.11.0 ; tell printer latest fw version
G90 ; use absolute coordinates
M83 ; extruder relative mode
M104 S210 ; set extruder temp
M140 S60 ; set bed temp
M190 S60 ; wait for bed temp
M109 S210 ; wait for extruder temp
G28 W ; home all without mesh bed level
G80 ; mesh bed leveling
G1 Z0.2 F720
G1 Y-3 F1000 ; go outside print area
G92 E0
G1 X60 E9 F1000 ; intro line
G1 X100 E12.5 F1000 ; intro line
G92 E0
M221 S95

; Don't change E values below. Excessive value can damage the printer.

M907 E538 ; set extruder motor current
G21 ; set units to millimeters
G90 ; use absolute coordinates
M83 ; use relative distances for extrusion
M900 K30 ; Filament gcode
M107 ; disable fan
;LAYER_CHANGE
;Z:0.2
;HEIGHT:0.2
;BEFORE_LAYER_CHANGE
G92 E0.0
;0.2


G1 E-.8 F2100 ; retract
G1 Z.4 F720 ; lift Z
;AFTER_LAYER_CHANGE
;0.2
G1 X102.015 Y82.693 F10800 ; move to first skirt point
G1 Z.2 F720 ; restore layer Z
G1 E.8 F2100 ;  ; unretract
M204 S800 ; adjust acceleration
;TYPE:Skirt/Brim
;WIDTH:0.42
G1 F1200
G1 X103.06 Y81.817 E.04278 ; skirt
G1 X104 Y81.623 E.03008 ; skirt
G1 X146 Y81.623 E1.31688 ; skirt
G1 X147.307 Y82.015 E.04278 ; skirt
G1 X148.183 Y83.06 E.04278 ; skirt
G1 X148.377 Y84 E.03008 ; skirt
G1 X148.377 Y126 E1.31688 ; skirt
G1 X147.985 Y127.307 E.04278 ; skirt
G1 X146.94 Y128.183 E.04278 ; skirt
G1 X146 Y128.377 E.03008 ; skirt
G1 X104 Y128.377 E1.31688 ; skirt
G1 X102.693 Y127.985 E.04278 ; skirt
G1 X101.817 Y126.94 E.04278 ; skirt
G1 X101.623 Y126 E.03008 ; skirt
G1 X101.623 Y84 E1.31688 ; skirt
G1 X101.997 Y82.75 E.0409 ; skirt
M204 S1000 ; adjust acceleration
; printing object embedded hexagon.STL id:0 copy 2
;WIPE_START
G1 F8640
G1 X103.06 Y81.817 E-.32671 ; wipe and retract
G1 X104 Y81.623 E-.22155 ; wipe and retract
G1 X104.917 Y81.623 E-.21174 ; wipe and retract
;WIPE_END
G1 E-.04 F2100 ; retract
G1 Z.6 F720 ; lift Z
G1 X104.787 Y100.787 F10800 ; move to first perimeter point
G1 Z.2 F720 ; restore layer Z
G1 E.8 F2100 ;  ; unretract
M204 S800 ; adjust acceleration
;TYPE:Perimeter
G1 F1200
G1 X113.213 Y100.787 E.26419 ; perimeter
G1 X113.213 Y109.213 E.26419 ; perimeter
G1 X104.787 Y109.213 E.26419 ; perimeter
G1 X104.787 Y100.847 E.26231 ; perimeter
M204 S1000 ; adjust acceleration
G1 X104.41 Y100.41 F10800 ; move to first perimeter point
M204 S800 ; adjust acceleration
;TYPE:External perimeter
G1 F1200
G1 X113.59 Y100.41 E.28783 ; perimeter
G1 X113.59 Y109.59 E.28783 ; perimeter
G1 X104.41 Y109.59 E.28783 ; perimeter
G1 X104.41 Y100.47 E.28595 ; perimeter
M204 S1000 ; adjust acceleration
M73 Q1 S33
G1 X104.796 Y100.514 F10800 ; move inwards before travel
;WIPE_START
M73 P1 R33
G1 F8640
G1 X107.701 Y100.448 E-.76 ; wipe and retract
;WIPE_END
G1 E-.04 F2100 ; retract
G1 Z.6 F720 ; lift Z
G1 X112.314 Y100.9 F10800 ; move to first infill point
G1 Z.2 F720 ; restore layer Z
G1 E.8 F2100 ;  ; unretract
M204 S800 ; adjust acceleration
;TYPE:Solid infill
;WIDTH:0.431231
G1 F1200
G1 X112.93 Y101.517 E.02815 ; infill
G1 X112.93 Y102.066 E.01773 ; infill
G1 X111.934 Y101.07 E.04547 ; infill
G1 X111.385 Y101.07 E.01773 ; infill
G1 X112.93 Y102.615 E.07055 ; infill
G1 X112.93 Y103.164 E.01773 ; infill
G1 X110.836 Y101.07 E.09563 ; infill
G1 X110.287 Y101.07 E.01773 ; infill
G1 X112.93 Y103.713 E.1207 ; infill
G1 X112.93 Y104.262 E.01773 ; infill
G1 X109.738 Y101.07 E.14578 ; infill
G1 X109.188 Y101.07 E.01773 ; infill
G1 X112.93 Y104.812 E.17085 ; infill
G1 X112.93 Y105.361 E.01773 ; infill
G1 X108.639 Y101.07 E.19593 ; infill
G1 X108.09 Y101.07 E.01773 ; infill
G1 X112.93 Y105.91 E.221 ; infill
G1 X112.93 Y106.459 E.01773 ; infill
G1 X107.541 Y101.07 E.24608 ; infill
G1 X106.992 Y101.07 E.01773 ; infill
G1 X112.93 Y107.008 E.27116 ; infill
G1 X112.93 Y107.557 E.01773 ; infill
G1 X106.443 Y101.07 E.29623 ; infill
G1 X105.894 Y101.07 E.01773 ; infill
M73 Q1 S32
G1 X112.93 Y108.106 E.32131 ; infill
G1 X112.93 Y108.656 E.01773 ; infill
G1 X105.344 Y101.07 E.34638 ; infill
G1 X105.07 Y101.07 E.00886 ; infill
G1 X105.07 Y101.345 E.00887 ; infill
G1 X112.655 Y108.93 E.34638 ; infill
G1 X112.106 Y108.93 E.01773 ; infill
G1 X105.07 Y101.894 E.3213 ; infill
G1 X105.07 Y102.443 E.01773 ; infill
G1 X111.557 Y108.93 E.29623 ; infill
G1 X111.008 Y108.93 E.01773 ; infill
G1 X105.07 Y102.992 E.27115 ; infill
G1 X105.07 Y103.541 E.01773 ; infill
G1 X110.459 Y108.93 E.24607 ; infill
G1 X109.91 Y108.93 E.01773 ; infill
M73 P1 R32
G1 X105.07 Y104.09 E.221 ; infill
G1 X105.07 Y104.639 E.01773 ; infill
G1 X109.361 Y108.93 E.19592 ; infill
G1 X108.811 Y108.93 E.01773 ; infill
G1 X105.07 Y105.189 E.17085 ; infill
G1 X105.07 Y105.738 E.01773 ; infill
G1 X108.262 Y108.93 E.14577 ; infill
G1 X107.713 Y108.93 E.01773 ; infill
G1 X105.07 Y106.287 E.1207 ; infill
G1 X105.07 Y106.836 E.01773 ; infill
G1 X107.164 Y108.93 E.09562 ; infill
G1 X106.615 Y108.93 E.01773 ; infill
G1 X105.07 Y107.385 E.07054 ; infill
G1 X105.07 Y107.934 E.01773 ; infill
G1 X106.066 Y108.93 E.04547 ; infill
G1 X105.516 Y108.93 E.01773 ; infill
G1 X104.9 Y108.314 E.02814 ; infill
M204 S1000 ; adjust acceleration
; stop printing object embedded hexagon.STL id:0 copy 2
; printing object embedded hexagon.STL id:0 copy 3
;WIPE_START
G1 F8640
G1 X105.516 Y108.93 E-.20124 ; wipe and retract
G1 X106.066 Y108.93 E-.1268 ; wipe and retract
G1 X105.07 Y107.934 E-.32516 ; wipe and retract
G1 X105.07 Y107.472 E-.1068 ; wipe and retract
;WIPE_END
G1 E-.04 F2100 ; retract
G1 Z.6 F720 ; lift Z
G1 X104.787 Y116.787 F10800 ; move to first perimeter point
G1 Z.2 F720 ; restore layer Z
G1 E.8 F2100 ;  ; unretract
M204 S800 ; adjust acceleration
;TYPE:Perimeter
;WIDTH:0.42
G1 F1200
G1 X113.213 Y116.787 E.26419 ; perimeter
G1 X113.213 Y125.213 E.26419 ; perimeter
G1 X104.787 Y125.213 E.26419 ; perimeter
G1 X104.787 Y116.847 E.26231 ; perimeter
M204 S1000 ; adjust acceleration
G1 X104.41 Y116.41 F10800 ; move to first perimeter point
M204 S800 ; adjust acceleration
;TYPE:External perimeter
G1 F1200
G1 X113.59 Y116.41 E.28783 ; perimeter
G1 X113.59 Y125.59 E.28783 ; perimeter
G1 X104.41 Y125.59 E.28783 ; perimeter
G1 X104.41 Y116.47 E.28595 ; perimeter
M204 S1000 ; adjust acceleration
G1 X104.796 Y116.514 F10800 ; move inwards before travel
;WIPE_START
G1 F8640
G1 X107.701 Y116.448 E-.76 ; wipe and retract
;WIPE_END
G1 E-.04 F2100 ; retract
G1 Z.6 F720 ; lift Z
G1 X112.314 Y116.9 F10800 ; move to first infill point
G1 Z.2 F720 ; restore layer Z
G1 E.8 F2100 ;  ; unretract
M204 S800 ; adjust acceleration
;TYPE:Solid infill
;WIDTH:0.431231
G1 F1200
G1 X112.93 Y117.517 E.02815 ; infill
G1 X112.93 Y118.066 E.01773 ; infill
G1 X111.934 Y117.07 E.04547 ; infill
G1 X111.385 Y117.07 E.01773 ; infill
G1 X112.93 Y118.615 E.07055 ; infill
G1 X112.93 Y119.164 E.01773 ; infill
G1 X110.836 Y117.07 E.09563 ; infill
G1 X110.287 Y117.07 E.01773 ; infill
G1 X112.93 Y119.713 E.1207 ; infill
G1 X112.93 Y120.262 E.01773 ; infill
G1 X109.738 Y117.07 E.14578 ; infill
G1 X109.188 Y117.07 E.01773 ; infill
G1 X112.93 Y120.812 E.17085 ; infill
G1 X112.93 Y121.361 E.01773 ; infill
G1 X108.639 Y117.07 E.19593 ; infill
G1 X108.09 Y117.07 E.01773 ; infill
G1 X112.93 Y121.91 E.221 ; infill
G1 X112.93 Y122.459 E.01773 ; infill
G1 X107.541 Y117.07 E.24608 ; infill
G1 X106.992 Y117.07 E.01773 ; infill
G1 X112.93 Y123.008 E.27116 ; infill
G1 X112.93 Y123.557 E.01773 ; infill
G1 X106.443 Y117.07 E.29623 ; infill
G1 X105.894 Y117.07 E.01773 ; infill
G1 X112.93 Y124.106 E.32131 ; infill
G1 X112.93 Y124.656 E.01773 ; infill
G1 X105.344 Y117.07 E.34638 ; infill
G1 X105.07 Y117.07 E.00886 ; infill
G1 X105.07 Y117.345 E.00887 ; infill
G1 X112.655 Y124.93 E.34638 ; infill
G1 X112.106 Y124.93 E.01773 ; infill
G1 X105.07 Y117.894 E.3213 ; infill
G1 X105.07 Y118.443 E.01773 ; infill
M73 P2 R32
M73 Q2 S32
G1 X111.557 Y124.93 E.29623 ; infill
G1 X111.008 Y124.93 E.01773 ; infill
G1 X105.07 Y118.992 E.27115 ; infill
G1 X105.07 Y119.541 E.01773 ; infill
G1 X110.459 Y124.93 E.24607 ; infill
G1 X109.91 Y124.93 E.01773 ; infill
G1 X105.07 Y120.09 E.221 ; infill
G1 X105.07 Y120.639 E.01773 ; infill
G1 X109.361 Y124.93 E.19592 ; infill
G1 X108.811 Y124.93 E.01773 ; infill
G1 X105.07 Y121.189 E.17085 ; infill
G1 X105.07 Y121.738 E.01773 ; infill
G1 X108.262 Y124.93 E.14577 ; infill
G1 X107.713 Y124.93 E.01773 ; infill
G1 X105.07 Y122.287 E.1207 ; infill
G1 X105.07 Y122.836 E.01773 ; infill
G1 X107.164 Y124.93 E.09562 ; infill
G1 X106.615 Y124.93 E.01773 ; infill
G1 X105.07 Y123.385 E.07054 ; infill
G1 X105.07 Y123.934 E.01773 ; infill
G1 X106.066 Y124.93 E.04547 ; infill
G1 X105.516 Y124.93 E.01773 ; infill
G1 X104.9 Y124.314 E.02814 ; infill
M204 S1000 ; adjust acceleration
; stop printing object embedded hexagon.STL id:0 copy 3
; printing object embedded hexagon.STL id:0 copy 1
;WIPE_START
G1 F8640
G1 X105.516 Y124.93 E-.20124 ; wipe and retract
G1 X106.066 Y124.93 E-.1268 ; wipe and retract
G1 X105.07 Y123.934 E-.32516 ; wipe and retract
G1 X105.07 Y123.472 E-.1068 ; wipe and retract
;WIPE_END
G1 E-.04 F2100 ; retract
G1 Z.6 F720 ; lift Z
G1 X120.787 Y125.213 F10800 ; move to first perimeter point
G1 Z.2 F720 ; restore layer Z
G1 E.8 F2100 ;  ; unretract
M204 S800 ; adjust acceleration
;TYPE:Perimeter
;WIDTH:0.42
G1 F1200
G1 X120.787 Y116.787 E.26419 ; perimeter
G1 X129.213 Y116.787 E.26419 ; perimeter
G1 X129.213 Y125.213 E.26419 ; perimeter
G1 X120.847 Y125.213 E.26231 ; perimeter
M204 S1000 ; adjust acceleration
G1 X120.41 Y125.59 F10800 ; move to first perimeter point
M204 S800 ; adjust acceleration
;TYPE:External perimeter
G1 F1200
G1 X120.41 Y116.41 E.28783 ; perimeter
G1 X129.59 Y116.41 E.28783 ; perimeter
G1 X129.59 Y125.59 E.28783 ; perimeter
G1 X120.47 Y125.59 E.28595 ; perimeter
M204 S1000 ; adjust acceleration
G1 X120.514 Y125.204 F10800 ; move inwards before travel
;WIPE_START
G1 F8640
G1 X120.448 Y122.299 E-.76 ; wipe and retract
;WIPE_END
G1 E-.04 F2100 ; retract
G1 Z.6 F720 ; lift Z
G1 X128.314 Y116.9 F10800 ; move to first infill point
G1 Z.2 F720 ; restore layer Z
G1 E.8 F2100 ;  ; unretract
M204 S800 ; adjust acceleration
;TYPE:Solid infill
;WIDTH:0.431231
G1 F1200
G1 X128.93 Y117.517 E.02815 ; infill
G1 X128.93 Y118.066 E.01773 ; infill
G1 X127.934 Y117.07 E.04547 ; infill
G1 X127.385 Y117.07 E.01773 ; infill
G1 X128.93 Y118.615 E.07055 ; infill
G1 X128.93 Y119.164 E.01773 ; infill
G1 X126.836 Y117.07 E.09563 ; infill
G1 X126.287 Y117.07 E.01773 ; infill
G1 X128.93 Y119.713 E.1207 ; infill
G1 X128.93 Y120.262 E.01773 ; infill
G1 X125.738 Y117.07 E.14578 ; infill
G1 X125.188 Y117.07 E.01773 ; infill
G1 X128.93 Y120.812 E.17085 ; infill
G1 X128.93 Y121.361 E.01773 ; infill
G1 X124.639 Y117.07 E.19593 ; infill
G1 X124.09 Y117.07 E.01773 ; infill
G1 X128.93 Y121.91 E.221 ; infill
G1 X128.93 Y122.459 E.01773 ; infill
G1 X123.541 Y117.07 E.24608 ; infill
G1 X122.992 Y117.07 E.01773 ; infill
G1 X128.93 Y123.008 E.27116 ; infill
G1 X128.93 Y123.557 E.01773 ; infill
G1 X122.443 Y117.07 E.29623 ; infill
G1 X121.894 Y117.07 E.01773 ; infill
G1 X128.93 Y124.106 E.32131 ; infill
G1 X128.93 Y124.656 E.01773 ; infill
G1 X121.344 Y117.07 E.34638 ; infill
G1 X121.07 Y117.07 E.00886 ; infill
G1 X121.07 Y117.345 E.00887 ; infill
G1 X128.655 Y124.93 E.34638 ; infill
G1 X128.106 Y124.93 E.01773 ; infill
G1 X121.07 Y117.894 E.3213 ; infill
G1 X121.07 Y118.443 E.01773 ; infill
G1 X127.557 Y124.93 E.29623 ; infill
G1 X127.008 Y124.93 E.01773 ; infill
G1 X121.07 Y118.992 E.27115 ; infill
G1 X121.07 Y119.541 E.01773 ; infill
G1 X126.459 Y124.93 E.24607 ; infill
G1 X125.91 Y124.93 E.01773 ; infill
G1 X121.07 Y120.09 E.221 ; infill
G1 X121.07 Y120.639 E.01773 ; infill
G1 X125.361 Y124.93 E.19592 ; infill
G1 X124.811 Y124.93 E.01773 ; infill
G1 X121.07 Y121.189 E.17085 ; infill
G1 X121.07 Y121.738 E.01773 ; infill
G1 X124.262 Y124.93 E.14577 ; infill
G1 X123.713 Y124.93 E.01773 ; infill
G1 X121.07 Y122.287 E.1207 ; infill
G1 X121.07 Y122.836 E.01773 ; infill
G1 X123.164 Y124.93 E.09562 ; infill
G1 X122.615 Y124.93 E.01773 ; infill
G1 X121.07 Y123.385 E.07054 ; infill
G1 X121.07 Y123.934 E.01773 ; infill
G1 X122.066 Y124.93 E.04547 ; infill
G1 X121.516 Y124.93 E.01773 ; infill
G1 X120.9 Y124.314 E.02814 ; infill
M204 S1000 ; adjust acceleration
; stop printing object embedded hexagon.STL id:0 copy 1
; printing object embedded hexagon.STL id:0 copy 0
;WIPE_START
G1 F8640
G1 X121.516 Y124.93 E-.20124 ; wipe and retract
G1 X122.066 Y124.93 E-.1268 ; wipe and retract
G1 X121.07 Y123.934 E-.32516 ; wipe and retract
G1 X121.07 Y123.472 E-.1068 ; wipe and retract
;WIPE_END
G1 E-.04 F2100 ; retract
G1 Z.6 F720 ; lift Z
G1 X120.787 Y109.213 F10800 ; move to first perimeter point
G1 Z.2 F720 ; restore layer Z
G1 E.8 F2100 ;  ; unretract
M204 S800 ; adjust acceleration
;TYPE:Perimeter
;WIDTH:0.42
G1 F1200
G1 X120.787 Y100.787 E.26419 ; perimeter
G1 X129.213 Y100.787 E.26419 ; perimeter
G1 X129.213 Y109.213 E.26419 ; perimeter
G1 X120.847 Y109.213 E.26231 ; perimeter
M204 S1000 ; adjust acceleration
G1 X120.41 Y109.59 F10800 ; move to first perimeter point
M204 S800 ; adjust acceleration
;TYPE:External perimeter
G1 F1200
M73 Q3 S32
G1 X120.41 Y100.41 E.28783 ; perimeter
G1 X129.59 Y100.41 E.28783 ; perimeter
M73 P3 R32
G1 X129.59 Y109.59 E.28783 ; perimeter
G1 X120.47 Y109.59 E.28595 ; perimeter
M204 S1000 ; adjust acceleration
G1 X120.514 Y109.204 F10800 ; move inwards before travel
;WIPE_START
G1 F8640
G1 X120.448 Y106.299 E-.76 ; wipe and retract
;WIPE_END
G1 E-.04 F2100 ; retract
G1 Z.6 F720 ; lift Z
G1 X128.314 Y100.9 F10800 ; move to first infill point
G1 Z.2 F720 ; restore layer Z
G1 E.8 F2100 ;  ; unretract
M204 S800 ; adjust acceleration
;TYPE:Solid infill
;WIDTH:0.431231
G1 F1200
G1 X128.93 Y101.517 E.02815 ; infill
G1 X128.93 Y102.066 E.01773 ; infill
G1 X127.934 Y101.07 E.04547 ; infill
G1 X127.385 Y101.07 E.01773 ; infill
G1 X128.93 Y102.615 E.07055 ; infill
G1 X128.93 Y103.164 E.01773 ; infill
G1 X126.836 Y101.07 E.09563 ; infill
G1 X126.287 Y101.07 E.01773 ; infill
G1 X128.93 Y103.713 E.1207 ; infill
G1 X128.93 Y104.262 E.01773 ; infill
G1 X125.738 Y101.07 E.14578 ; infill
G1 X125.188 Y101.07 E.01773 ; infill
G1 X128.93 Y104.812 E.17085 ; infill
G1 X128.93 Y105.361 E.01773 ; infill
G1 X124.639 Y101.07 E.19593 ; infill
G1 X124.09 Y101.07 E.01773 ; infill
G1 X128.93 Y105.91 E.221 ; infill
G1 X128.93 Y106.459 E.01773 ; infill
G1 X123.541 Y101.07 E.24608 ; infill
G1 X122.992 Y101.07 E.01773 ; infill
G1 X128.93 Y107.008 E.27116 ; infill
G1 X128.93 Y107.557 E.01773 ; infill
G1 X122.443 Y101.07 E.29623 ; infill
G1 X121.894 Y101.07 E.01773 ; infill
G1 X128.93 Y108.106 E.32131 ; infill
G1 X128.93 Y108.656 E.01773 ; infill
G1 X121.344 Y101.07 E.34638 ; infill
G1 X121.07 Y101.07 E.00886 ; infill
G1 X121.07 Y101.345 E.00887 ; infill
G1 X128.655 Y108.93 E.34638 ; infill
G1 X128.106 Y108.93 E.01773 ; infill
G1 X121.07 Y101.894 E.3213 ; infill
G1 X121.07 Y102.443 E.01773 ; infill
G1 X127.557 Y108.93 E.29623 ; infill
G1 X127.008 Y108.93 E.01773 ; infill
G1 X121.07 Y102.992 E.27115 ; infill
G1 X121.07 Y103.541 E.01773 ; infill
G1 X126.459 Y108.93 E.24607 ; infill
G1 X125.91 Y108.93 E.01773 ; infill
G1 X121.07 Y104.09 E.221 ; infill
G1 X121.07 Y104.639 E.01773 ; infill
G1 X125.361 Y108.93 E.19592 ; infill
G1 X124.811 Y108.93 E.01773 ; infill
