; generated by PrusaSlicer 2.4.2+win64 on 2022-06-05 at 16:24:49 UTC


;
;
; 

; external perimeters extrusion width = 0.45mm
; perimeters extrusion width = 0.45mm
; infill extrusion width = 0.45mm
; solid infill extrusion width = 0.45mm
; top infill extrusion width = 0.40mm
; first layer extrusion width = 0.42mm

M73 P0 R6
M73 Q0 S6
M201 X1000 Y1000 Z200 E5000 ; sets maximum accelerations, mm/sec^2
M203 X200 Y200 Z12 E120 ; sets maximum feedrates, mm / sec
M204 P1250 R1250 T1250 ; sets acceleration (P, T) and retract acceleration (R), mm/sec^2
M205 X8.00 Y8.00 Z0.40 E4.50 ; sets the jerk limits, mm/sec
M205 S0 T0 ; sets the minimum extruding and travel feed rate, mm/sec
M107 ; disable fan
;TYPE:Custom
M862.3 P "MK3S" ; printer model check
M862.1 P0.4 ; nozzle diameter check
M115 U3.11.0 ; tell printer latest fw version
G90 ; use absolute coordinates
M83 ; extruder relative mode
M104 S210 ; set extruder temp
M140 S60 ; set bed temp
M190 S60 ; wait for bed temp
M109 S210 ; wait for extruder temp
G28 W ; home all without mesh bed level
G80 ; mesh bed leveling
G1 Z0.2 F720
G1 Y-3 F1000 ; go outside print area
G92 E0
G1 X60 E9 F1000 ; intro line
G1 X100 E12.5 F1000 ; intro line
G92 E0
M221 S95

; Don't change E values below. Excessive value can damage the printer.

M907 E538 ; set extruder motor current
G21 ; set units to millimeters
G90 ; use absolute coordinates
M83 ; use relative distances for extrusion
M900 K30 ; Filament gcode
M107 ; disable fan
;LAYER_CHANGE
;Z:0.2
;HEIGHT:0.2
;BEFORE_LAYER_CHANGE
G92 E0.0
;0.2


G1 E-.8 F2100 ; retract
M73 P1 R6
M73 Q1 S6
G1 Z.4 F720 ; lift Z
;AFTER_LAYER_CHANGE
;0.2
G1 X117.262 Y98.48 F10800 ; move to first skirt point
G1 Z.2 F720 ; restore layer Z
G1 E.8 F2100 ;  ; unretract
M204 S800 ; adjust acceleration
;TYPE:Skirt/Brim
;WIDTH:0.42
G1 F1200
G1 X118.344 Y97.342 E.04923 ; skirt
G1 X120 Y96.869 E.054 ; skirt
G1 X130 Y96.869 E.31354 ; skirt
G1 X131.52 Y97.262 E.04923 ; skirt
M73 Q2 S6
G1 X132.658 Y98.344 E.04923 ; skirt
G1 X133.131 Y100 E.054 ; skirt
M73 P2 R6
G1 X133.131 Y110 E.31354 ; skirt
G1 X132.738 Y111.52 E.04923 ; skirt
G1 X131.656 Y112.658 E.04923 ; skirt
G1 X130 Y113.131 E.054 ; skirt
G1 X120 Y113.131 E.31354 ; skirt
G1 X118.48 Y112.738 E.04923 ; skirt
G1 X117.342 Y111.656 E.04923 ; skirt
G1 X116.869 Y110 E.054 ; skirt
G1 X116.869 Y100 E.31354 ; skirt
G1 X117.247 Y98.538 E.04735 ; skirt
M204 S1000 ; adjust acceleration
G1 X117.622 Y98.642 F10800 ; move to first skirt point
M204 S800 ; adjust acceleration
G1 F1200
G1 X117.639 Y98.583 E.00193 ; skirt
G1 X118.705 Y97.569 E.04612 ; skirt
G1 X120 Y97.246 E.04186 ; skirt
G1 X130 Y97.246 E.31354 ; skirt
G1 X131.417 Y97.639 E.04612 ; skirt
G1 X132.431 Y98.705 E.04612 ; skirt
G1 X132.754 Y100 E.04186 ; skirt
G1 X132.754 Y110 E.31354 ; skirt
G1 X132.361 Y111.417 E.04612 ; skirt
G1 X131.295 Y112.431 E.04612 ; skirt
M73 Q3 S6
G1 X130 Y112.754 E.04186 ; skirt
G1 X120 Y112.754 E.31354 ; skirt
G1 X118.583 Y112.361 E.04612 ; skirt
M73 P3 R6
G1 X117.569 Y111.295 E.04612 ; skirt
G1 X117.246 Y110 E.04186 ; skirt
G1 X117.246 Y100 E.31354 ; skirt
G1 X117.606 Y98.7 E.0423 ; skirt
M204 S1000 ; adjust acceleration
G1 X117.979 Y98.812 F10800 ; move to first skirt point
M204 S800 ; adjust acceleration
G1 F1200
G1 X118.015 Y98.693 E.00388 ; skirt
G1 X119.06 Y97.817 E.04278 ; skirt
G1 X120 Y97.623 E.03008 ; skirt
G1 X130 Y97.623 E.31354 ; skirt
G1 X131.307 Y98.015 E.04278 ; skirt
G1 X132.183 Y99.06 E.04278 ; skirt
G1 X132.377 Y100 E.03008 ; skirt
G1 X132.377 Y110 E.31354 ; skirt
G1 X131.985 Y111.307 E.04278 ; skirt
G1 X130.94 Y112.183 E.04278 ; skirt
G1 X130 Y112.377 E.03008 ; skirt
G1 X120 Y112.377 E.31354 ; skirt
G1 X118.693 Y111.985 E.04278 ; skirt
G1 X117.817 Y110.94 E.04278 ; skirt
G1 X117.623 Y110 E.03008 ; skirt
G1 X117.623 Y100 E.31354 ; skirt
G1 X117.962 Y98.869 E.03702 ; skirt
M204 S1000 ; adjust acceleration
; printing object embedded hexagon.STL id:0 copy 0
;WIPE_START
M73 Q4 S6
G1 F8640
G1 X118.015 Y98.693 E-.04244 ; wipe and retract
G1 X119.06 Y97.817 E-.31505 ; wipe and retract
G1 X120 Y97.623 E-.22155 ; wipe and retract
M73 P4 R6
G1 X120.784 Y97.623 E-.18096 ; wipe and retract
;WIPE_END
G1 E-.04 F2100 ; retract
G1 Z.6 F720 ; lift Z
G1 X120.787 Y100.787 F10800 ; move to first perimeter point
G1 Z.2 F720 ; restore layer Z
G1 E.8 F2100 ;  ; unretract
M204 S800 ; adjust acceleration
;TYPE:Perimeter
G1 F1200
G1 X129.213 Y100.787 E.26419 ; perimeter
G1 X129.213 Y109.213 E.26419 ; perimeter
G1 X120.787 Y109.213 E.26419 ; perimeter
G1 X120.787 Y100.847 E.26231 ; perimeter
M204 S1000 ; adjust acceleration
G1 X120.41 Y100.41 F10800 ; move to first perimeter point
M204 S800 ; adjust acceleration
;TYPE:External perimeter
G1 F1200
G1 X129.59 Y100.41 E.28783 ; perimeter
G1 X129.59 Y109.59 E.28783 ; perimeter
G1 X120.41 Y109.59 E.28783 ; perimeter
G1 X120.41 Y100.47 E.28595 ; perimeter
M204 S1000 ; adjust acceleration
G1 X120.796 Y100.514 F10800 ; move inwards before travel
;WIPE_START
M73 P5 R6
M73 Q5 S6
G1 F8640
G1 X123.701 Y100.448 E-.76 ; wipe and retract
;WIPE_END
G1 E-.04 F2100 ; retract
G1 Z.6 F720 ; lift Z
G1 X128.314 Y100.9 F10800 ; move to first infill point
G1 Z.2 F720 ; restore layer Z
G1 E.8 F2100 ;  ; unretract
M204 S800 ; adjust acceleration
;TYPE:Solid infill
;WIDTH:0.431231
G1 F1200
G1 X128.93 Y101.517 E.02815 ; infill
G1 X128.93 Y102.066 E.01773 ; infill
G1 X127.934 Y101.07 E.04547 ; infill
G1 X127.385 Y101.07 E.01773 ; infill
G1 X128.93 Y102.615 E.07055 ; infill
G1 X128.93 Y103.164 E.01773 ; infill
G1 X126.836 Y101.07 E.09563 ; infill
G1 X126.287 Y101.07 E.01773 ; infill
G1 X128.93 Y103.713 E.1207 ; infill
G1 X128.93 Y104.262 E.01773 ; infill
G1 X125.738 Y101.07 E.14578 ; infill
G1 X125.188 Y101.07 E.01773 ; infill
G1 X128.93 Y104.812 E.17085 ; infill
G1 X128.93 Y105.361 E.01773 ; infill
G1 X124.639 Y101.07 E.19593 ; infill
G1 X124.09 Y101.07 E.01773 ; infill
G1 X128.93 Y105.91 E.221 ; infill
G1 X128.93 Y106.459 E.01773 ; infill
G1 X123.541 Y101.07 E.24608 ; infill
G1 X122.992 Y101.07 E.01773 ; infill
G1 X128.93 Y107.008 E.27116 ; infill
G1 X128.93 Y107.557 E.01773 ; infill
G1 X122.443 Y101.07 E.29623 ; infill
G1 X121.894 Y101.07 E.01773 ; infill
M73 Q6 S6
G1 X128.93 Y108.106 E.32131 ; infill
G1 X128.93 Y108.656 E.01773 ; infill
M73 P6 R6
G1 X121.344 Y101.07 E.34638 ; infill
G1 X121.07 Y101.07 E.00886 ; infill
G1 X121.07 Y101.345 E.00887 ; infill
G1 X128.655 Y108.93 E.34638 ; infill
G1 X128.106 Y108.93 E.01773 ; infill
G1 X121.07 Y101.894 E.3213 ; infill
G1 X121.07 Y102.443 E.01773 ; infill
G1 X127.557 Y108.93 E.29623 ; infill
G1 X127.008 Y108.93 E.01773 ; infill
G1 X121.07 Y102.992 E.27115 ; infill
G1 X121.07 Y103.541 E.01773 ; infill
G1 X126.459 Y108.93 E.24607 ; infill
G1 X125.91 Y108.93 E.01773 ; infill
G1 X121.07 Y104.09 E.221 ; infill
G1 X121.07 Y104.639 E.01773 ; infill
M73 Q7 S6
G1 X125.361 Y108.93 E.19592 ; infill
G1 X124.811 Y108.93 E.01773 ; infill
M73 P7 R6
G1 X121.07 Y105.189 E.17085 ; infill
G1 X121.07 Y105.738 E.01773 ; infill
G1 X124.262 Y108.93 E.14577 ; infill
G1 X123.713 Y108.93 E.01773 ; infill
G1 X121.07 Y106.287 E.1207 ; infill
G1 X121.07 Y106.836 E.01773 ; infill
G1 X123.164 Y108.93 E.09562 ; infill
G1 X122.615 Y108.93 E.01773 ; infill
G1 X121.07 Y107.385 E.07054 ; infill
G1 X121.07 Y107.934 E.01773 ; infill
G1 X122.066 Y108.93 E.04547 ; infill
G1 X121.516 Y108.93 E.01773 ; infill
G1 X120.9 Y108.314 E.02814 ; infill
M204 S1000 ; adjust acceleration
; stop printing object embedded hexagon.STL id:0 copy 0
;LAYER_CHANGE
;Z:0.4
;HEIGHT:0.2
;BEFORE_LAYER_CHANGE
G92 E0.0
;0.4


;WIPE_START
G1 F8640
G1 X121.516 Y108.93 E-.20124 ; wipe and retract
G1 X122.066 Y108.93 E-.1268 ; wipe and retract
G1 X121.07 Y107.934 E-.32516 ; wipe and retract
G1 X121.07 Y107.472 E-.1068 ; wipe and retract
;WIPE_END
G1 E-.04 F2100 ; retract
G1 Z.6 F720 ; lift Z
;AFTER_LAYER_CHANGE
;0.4
G1 X116.869 Y107.472 F10800 ; move to first skirt point
G1 Z.4 F720 ; restore layer Z
G1 E.8 F2100 ;  ; unretract
;TYPE:Skirt/Brim
;WIDTH:0.42
G1 F1292
G1 X116.869 Y100 E.23427 ; skirt
G1 X117.262 Y98.48 E.04923 ; skirt
G1 X118.344 Y97.342 E.04923 ; skirt
G1 X120 Y96.869 E.054 ; skirt
G1 X130 Y96.869 E.31354 ; skirt
G1 X131.52 Y97.262 E.04923 ; skirt
G1 X132.658 Y98.344 E.04923 ; skirt
G1 X133.131 Y100 E.054 ; skirt
G1 X133.131 Y110 E.31354 ; skirt
G1 X132.738 Y111.52 E.04923 ; skirt
M73 Q8 S6
G1 X131.656 Y112.658 E.04923 ; skirt
G1 X130 Y113.131 E.054 ; skirt
M73 P8 R6
G1 X120 Y113.131 E.31354 ; skirt
G1 X118.48 Y112.738 E.04923 ; skirt
G1 X117.342 Y111.656 E.04923 ; skirt
G1 X116.869 Y110 E.054 ; skirt
G1 X116.869 Y107.532 E.07739 ; skirt
G1 X117.246 Y107.532 F10800 ; move to first skirt point
G1 F1292
G1 X117.246 Y100 E.23616 ; skirt
G1 X117.639 Y98.583 E.04612 ; skirt
G1 X118.705 Y97.569 E.04612 ; skirt
G1 X120 Y97.246 E.04186 ; skirt
G1 X130 Y97.246 E.31354 ; skirt
G1 X131.417 Y97.639 E.04612 ; skirt
G1 X132.431 Y98.705 E.04612 ; skirt
G1 X132.754 Y100 E.04186 ; skirt
G1 X132.754 Y110 E.31354 ; skirt
G1 X132.361 Y111.417 E.04612 ; skirt
G1 X131.295 Y112.431 E.04612 ; skirt
G1 X130 Y112.754 E.04186 ; skirt
G1 X120 Y112.754 E.31354 ; skirt
G1 X118.583 Y112.361 E.04612 ; skirt
G1 X117.569 Y111.295 E.04612 ; skirt
G1 X117.246 Y110 E.04186 ; skirt
G1 X117.246 Y107.592 E.07551 ; skirt
G1 X117.623 Y107.592 F10800 ; move to first skirt point
G1 F1292
G1 X117.623 Y100 E.23804 ; skirt
G1 X118.015 Y98.693 E.04278 ; skirt
M73 P9 R6
M73 Q9 S6
G1 X119.06 Y97.817 E.04278 ; skirt
G1 X120 Y97.623 E.03008 ; skirt
G1 X130 Y97.623 E.31354 ; skirt
G1 X131.307 Y98.015 E.04278 ; skirt
G1 X132.183 Y99.06 E.04278 ; skirt
G1 X132.377 Y100 E.03008 ; skirt
G1 X132.377 Y110 E.31354 ; skirt
G1 X131.985 Y111.307 E.04278 ; skirt
M73 P9 R5
M73 Q9 S5
G1 X130.94 Y112.183 E.04278 ; skirt
G1 X130 Y112.377 E.03008 ; skirt
G1 X120 Y112.377 E.31354 ; skirt
G1 X118.693 Y111.985 E.04278 ; skirt
G1 X117.817 Y110.94 E.04278 ; skirt
G1 X117.623 Y110 E.03008 ; skirt
G1 X117.623 Y107.652 E.07362 ; skirt
; printing object embedded hexagon.STL id:0 copy 0
;WIPE_START
G1 F8640
G1 X117.623 Y104.36 E-.76 ; wipe and retract
;WIPE_END
G1 E-.04 F2100 ; retract
G1 Z.8 F720 ; lift Z
G1 X120.632 Y109.368 F10800 ; move to first perimeter point
G1 Z.4 F720 ; restore layer Z
G1 E.8 F2100 ;  ; unretract
M204 S800 ; adjust acceleration
;TYPE:Perimeter
;WIDTH:0.45
G1 F1292
G1 X120.632 Y100.632 E.2957 ; perimeter
G1 X129.368 Y100.632 E.2957 ; perimeter
G1 X129.368 Y109.368 E.2957 ; perimeter
G1 X120.692 Y109.368 E.29367 ; perimeter
M204 S1000 ; adjust acceleration
M73 Q10 S5
G1 X120.225 Y109.775 F10800 ; move to first perimeter point
M204 S800 ; adjust acceleration
;TYPE:External perimeter
M73 P10 R5
G1 F1292
G1 X120.225 Y100.225 E.32326 ; perimeter
G1 X129.775 Y100.225 E.32326 ; perimeter
G1 X129.775 Y109.775 E.32326 ; perimeter
G1 X120.285 Y109.775 E.32123 ; perimeter
M204 S1000 ; adjust acceleration
G1 X120.329 Y109.389 F10800 ; move inwards before travel
;WIPE_START
G1 F8640
G1 X120.264 Y106.484 E-.76 ; wipe and retract
;WIPE_END
G1 E-.04 F2100 ; retract
G1 Z.8 F720 ; lift Z
G1 X129.246 Y108.404 F10800 ; move to first infill point
G1 Z.4 F720 ; restore layer Z
G1 E.8 F2100 ;  ; unretract
;TYPE:Solid infill
;WIDTH:0.459006
G1 F1292
G1 X128.587 Y109.063 E.03224 ; infill
G1 X127.999 Y109.063 E.02036 ; infill
G1 X129.063 Y107.999 E.05206 ; infill
G1 X129.063 Y107.41 E.02036 ; infill
G1 X127.41 Y109.063 E.08085 ; infill
G1 X126.822 Y109.063 E.02036 ; infill
G1 X129.063 Y106.822 E.10965 ; infill
G1 X129.063 Y106.233 E.02036 ; infill
G1 X126.233 Y109.063 E.13844 ; infill
G1 X125.645 Y109.063 E.02036 ; infill
G1 X129.063 Y105.645 E.16723 ; infill
G1 X129.063 Y105.056 E.02036 ; infill
M73 Q11 S5
G1 X125.056 Y109.063 E.19602 ; infill
G1 X124.468 Y109.063 E.02036 ; infill
M73 P11 R5
G1 X129.063 Y104.468 E.22481 ; infill
G1 X129.063 Y103.879 E.02036 ; infill
G1 X123.879 Y109.063 E.2536 ; infill
G1 X123.291 Y109.063 E.02036 ; infill
G1 X129.063 Y103.291 E.28239 ; infill
G1 X129.063 Y102.703 E.02036 ; infill
G1 X122.703 Y109.063 E.31118 ; infill
G1 X122.114 Y109.063 E.02036 ; infill
G1 X129.063 Y102.114 E.33998 ; infill
G1 X129.063 Y101.526 E.02036 ; infill
G1 X121.526 Y109.063 E.36877 ; infill
G1 X120.937 Y109.063 E.02036 ; infill
G1 X129.063 Y100.937 E.39755 ; infill
G1 X128.474 Y100.937 E.02036 ; infill
G1 X120.937 Y108.474 E.36876 ; infill
G1 X120.937 Y107.886 E.02036 ; infill
M73 Q12 S5
G1 X127.886 Y100.937 E.33997 ; infill
G1 X127.297 Y100.937 E.02036 ; infill
M73 P12 R5
G1 X120.937 Y107.297 E.31118 ; infill
G1 X120.937 Y106.709 E.02036 ; infill
G1 X126.709 Y100.937 E.28239 ; infill
G1 X126.12 Y100.937 E.02036 ; infill
G1 X120.937 Y106.12 E.2536 ; infill
G1 X120.937 Y105.532 E.02036 ; infill
G1 X125.532 Y100.937 E.2248 ; infill
G1 X124.944 Y100.937 E.02036 ; infill
G1 X120.937 Y104.944 E.19601 ; infill
G1 X120.937 Y104.355 E.02036 ; infill
G1 X124.355 Y100.937 E.16722 ; infill
G1 X123.767 Y100.937 E.02036 ; infill
G1 X120.937 Y103.767 E.13843 ; infill
G1 X120.937 Y103.178 E.02036 ; infill
G1 X123.178 Y100.937 E.10964 ; infill
G1 X122.59 Y100.937 E.02036 ; infill
G1 X120.937 Y102.59 E.08085 ; infill
G1 X120.937 Y102.001 E.02036 ; infill
G1 X122.001 Y100.937 E.05206 ; infill
G1 X121.413 Y100.937 E.02036 ; infill
G1 X120.754 Y101.596 E.03223 ; infill
; stop printing object embedded hexagon.STL id:0 copy 0
;LAYER_CHANGE
;Z:0.6
;HEIGHT:0.2
;BEFORE_LAYER_CHANGE
G92 E0.0
;0.6


;WIPE_START
G1 F8640
G1 X121.413 Y100.937 E-.2151 ; wipe and retract
G1 X122.001 Y100.937 E-.13587 ; wipe and retract
G1 X120.937 Y102.001 E-.34743 ; wipe and retract
G1 X120.937 Y102.268 E-.06161 ; wipe and retract
;WIPE_END
G1 E-.04 F2100 ; retract
G1 Z.8 F720 ; lift Z
;AFTER_LAYER_CHANGE
;0.6
G1 X116.869 Y102.268 F10800 ; move to first skirt point
G1 Z.6 F720 ; restore layer Z
G1 E.8 F2100 ;  ; unretract
;TYPE:Skirt/Brim
;WIDTH:0.42
G1 F1291
M73 Q13 S5
G1 X116.869 Y100 E.07112 ; skirt
G1 X117.262 Y98.48 E.04923 ; skirt
G1 X118.344 Y97.342 E.04923 ; skirt
G1 X120 Y96.869 E.054 ; skirt
G1 X130 Y96.869 E.31354 ; skirt
M73 P13 R5
G1 X131.52 Y97.262 E.04923 ; skirt
G1 X132.658 Y98.344 E.04923 ; skirt
G1 X133.131 Y100 E.054 ; skirt
G1 X133.131 Y110 E.31354 ; skirt
G1 X132.738 Y111.52 E.04923 ; skirt
G1 X131.656 Y112.658 E.04923 ; skirt
G1 X130 Y113.131 E.054 ; skirt
G1 X120 Y113.131 E.31354 ; skirt
G1 X118.48 Y112.738 E.04923 ; skirt
G1 X117.342 Y111.656 E.04923 ; skirt
G1 X116.869 Y110 E.054 ; skirt
G1 X116.869 Y102.328 E.24055 ; skirt
G1 X117.246 Y102.328 F10800 ; move to first skirt point
G1 F1291
G1 X117.246 Y100 E.073 ; skirt
G1 X117.639 Y98.583 E.04612 ; skirt
G1 X118.705 Y97.569 E.04612 ; skirt
G1 X120 Y97.246 E.04186 ; skirt
G1 X130 Y97.246 E.31354 ; skirt
G1 X131.417 Y97.639 E.04612 ; skirt
G1 X132.431 Y98.705 E.04612 ; skirt
G1 X132.754 Y100 E.04186 ; skirt
G1 X132.754 Y110 E.31354 ; skirt
G1 X132.361 Y111.417 E.04612 ; skirt
M73 Q14 S5
G1 X131.295 Y112.431 E.04612 ; skirt
M73 P14 R5
G1 X130 Y112.754 E.04186 ; skirt
G1 X120 Y112.754 E.31354 ; skirt
G1 X118.583 Y112.361 E.04612 ; skirt
G1 X117.569 Y111.295 E.04612 ; skirt
G1 X117.246 Y110 E.04186 ; skirt
G1 X117.246 Y102.388 E.23866 ; skirt
G1 X117.623 Y102.388 F10800 ; move to first skirt point
G1 F1291
G1 X117.623 Y100 E.07488 ; skirt
G1 X118.015 Y98.693 E.04278 ; skirt
G1 X119.06 Y97.817 E.04278 ; skirt
G1 X120 Y97.623 E.03008 ; skirt
G1 X130 Y97.623 E.31354 ; skirt
G1 X131.307 Y98.015 E.04278 ; skirt
G1 X132.183 Y99.06 E.04278 ; skirt
G1 X132.377 Y100 E.03008 ; skirt
G1 X132.377 Y110 E.31354 ; skirt
G1 X131.985 Y111.307 E.04278 ; skirt
G1 X130.94 Y112.183 E.04278 ; skirt
G1 X130 Y112.377 E.03008 ; skirt
G1 X120 Y112.377 E.31354 ; skirt
G1 X118.693 Y111.985 E.04278 ; skirt
G1 X117.817 Y110.94 E.04278 ; skirt
G1 X117.623 Y110 E.03008 ; skirt
G1 X117.623 Y102.448 E.23678 ; skirt
; printing object embedded hexagon.STL id:0 copy 0
;WIPE_START
G1 F8640
M73 Q15 S5
G1 X117.623 Y100 E-.56528 ; wipe and retract
G1 X117.865 Y99.192 E-.19472 ; wipe and retract
;WIPE_END
G1 E-.04 F2100 ; retract
G1 Z1 F720 ; lift Z
G1 X120.632 Y100.632 F10800 ; move to first perimeter point
